// Compiled by Mads Drøschler 21.3.2019

	shader GlowingCircle(
	
	point Po = P,
	float a = 0.2,
	float b = 0.02,
	output vector Out = 0,
	
)
{
	vector p = Po-vector(0.5,0.5,0);
	p = length(p);
	p = a-p;
	p = fabs(p);
	p = b/p;
	p = pow(p,2.2);

Out = p;
}